assets/black-logo.svg

<svg width="300" height="105" viewBox="0 0 300 105" fill="none" xmlns="http://www.w3.org/2000/svg">
<g clip-path="url(#clip0_149_92)">
<path d="M298.832 0H236.497C236.417 0 235.328 1.0989 235.328 1.18611V63.1605H278.967V83.6849H0V105H298.832C298.912 105 300 103.901 300 103.814V1.18611C300 1.10471 298.912 0 298.832 0ZM278.961 41.8395H260.259V21.3151H278.961V41.8395Z" fill="#1E1E1E"/>
<path d="M107.535 0.790771V41.8454H56.1068V0.790771H35.0682V41.8454H0V63.1605H215.845V0.790771H107.535ZM151.949 41.8396H128.574V21.3152H150.781C150.86 21.3152 151.949 22.4141 151.949 22.5013V41.8454V41.8396ZM195.582 41.8396H172.207V21.3152H195.582V41.8396Z" fill="#1E1E1E"/>
</g>
<defs>
<clipPath id="clip0_149_92">
<rect width="300" height="105" fill="white"/>
</clipPath>
</defs>
</svg>

<svg xmlns="http://www.w3.org/2000/svg" width="300" height="105" fill="none"><g fill="#1E1E1E" clip-path="url(#a)"><path d="M298.832 0h-62.335c-.08 0-1.169 1.099-1.169 1.186v61.975h43.639v20.524H0V105h298.832c.08 0 1.168-1.099 1.168-1.186V1.186C300 1.105 298.912 0 298.832 0m-19.871 41.84h-18.702V21.315h18.702z"/><path d="M107.535.79v41.055H56.107V.791H35.068v41.054H0v21.316h215.845V.79zm44.414 41.05h-23.375V21.315h22.207c.079 0 1.168 1.1 1.168 1.186v19.344zm43.633 0h-23.375V21.315h23.375z"/></g><defs><clipPath id="a"><path fill="#fff" d="M0 0h300v105H0z"/></clipPath></defs></svg>
